(Exported by FreeCAD)
(Post Processor: grbl_post)
(Output Time:2017-08-30 17:31:31.281574)
(begin preamble)
G17 G90
G21
(begin operation: Default_Tool)
(Path: Default_Tool)
(Default_Tool)
(begin toolchange)
; M6 T1.0
M3 S1000.0000
(finish operation: Default_Tool)
(begin operation: Profile_Edges)
(Path: Profile_Edges)
(Profile_Edges)
(Compensated Tool Path. Diameter: 3.0)
G0 Z5.0000
G0 X68.5000 Y48.5000
G0 Z0.0000
G1 X68.5000 Y48.5000 Z-1.0000 F80.00
G1 X68.5000 Y21.5000 Z-1.0000 F200.00
G1 X46.5000 Y21.5000 Z-1.0000 F200.00
G1 X46.5000 Y48.5000 Z-1.0000 F200.00
G1 X68.5000 Y48.5000 Z-1.0000 F200.00
G1 X68.5000 Y48.5000 Z-2.0000 F80.00
G1 X68.5000 Y21.5000 Z-2.0000 F200.00
G1 X46.5000 Y21.5000 Z-2.0000 F200.00
G1 X46.5000 Y48.5000 Z-2.0000 F200.00
G1 X68.5000 Y48.5000 Z-2.0000 F200.00
G1 X68.5000 Y48.5000 Z-3.0000 F80.00
G1 X68.5000 Y21.5000 Z-3.0000 F200.00
G1 X46.5000 Y21.5000 Z-3.0000 F200.00
G1 X46.5000 Y48.5000 Z-3.0000 F200.00
G1 X68.5000 Y48.5000 Z-3.0000 F200.00
G1 X68.5000 Y48.5000 Z-4.0000 F80.00
G1 X68.5000 Y21.5000 Z-4.0000 F200.00
G1 X46.5000 Y21.5000 Z-4.0000 F200.00
G1 X46.5000 Y48.5000 Z-4.0000 F200.00
G1 X68.5000 Y48.5000 Z-4.0000 F200.00
G1 X68.5000 Y48.5000 Z-5.0000 F80.00
G1 X68.5000 Y21.5000 Z-5.0000 F200.00
G1 X46.5000 Y21.5000 Z-5.0000 F200.00
G1 X46.5000 Y48.5000 Z-5.0000 F200.00
G1 X68.5000 Y48.5000 Z-5.0000 F200.00
G1 X68.5000 Y48.5000 Z-6.0000 F80.00
G1 X68.5000 Y21.5000 Z-6.0000 F200.00
G1 X46.5000 Y21.5000 Z-6.0000 F200.00
G1 X46.5000 Y48.5000 Z-6.0000 F200.00
G1 X68.5000 Y48.5000 Z-6.0000 F200.00
G1 X68.5000 Y48.5000 Z-7.0000 F80.00
G1 X68.5000 Y21.5000 Z-7.0000 F200.00
G1 X46.5000 Y21.5000 Z-7.0000 F200.00
G1 X46.5000 Y48.5000 Z-7.0000 F200.00
G1 X68.5000 Y48.5000 Z-7.0000 F200.00
G1 X68.5000 Y48.5000 Z-8.0000 F80.00
G1 X68.5000 Y21.5000 Z-8.0000 F200.00
G1 X46.5000 Y21.5000 Z-8.0000 F200.00
G1 X46.5000 Y48.5000 Z-8.0000 F200.00
G1 X68.5000 Y48.5000 Z-8.0000 F200.00
G1 X68.5000 Y48.5000 Z-9.0000 F80.00
G1 X68.5000 Y21.5000 Z-9.0000 F200.00
G1 X46.5000 Y21.5000 Z-9.0000 F200.00
G1 X46.5000 Y48.5000 Z-9.0000 F200.00
G1 X68.5000 Y48.5000 Z-9.0000 F200.00
G1 X68.5000 Y48.5000 Z-10.0000 F80.00
G1 X68.5000 Y21.5000 Z-10.0000 F200.00
G1 X46.5000 Y21.5000 Z-10.0000 F200.00
G1 X46.5000 Y48.5000 Z-10.0000 F200.00
G1 X68.5000 Y48.5000 Z-10.0000 F200.00
G0 Z5.0000
(finish operation: Profile_Edges)
(begin operation: Default_Tool)
(Path: Default_Tool)
(Default_Tool)
(begin toolchange)
; M6 T1.0
M3 S1000.0000
(finish operation: Default_Tool)
(begin operation: Pocket002)
(Path: Pocket002)
(Pocket002)
G0 Z5.0000
G0 X31.0094 Y41.0094
G0 Z0.0000
G1 X31.0094 Y41.0094 Z-1.0000 F80.00
G2 X25.7407 Y26.5338 Z-1.0000 I-6.0094 J-6.0094 F200.00
G2 X24.2593 Y43.4662 Z-1.0000 I-0.7407 J8.4662 F200.00
G2 X31.0094 Y41.0094 Z-1.0000 I0.7407 J-8.4662 F200.00
G0 X31.0094 Y41.0094 Z5.0000
G0 X29.0984 Y39.0984 Z5.0000
G0 X29.0984 Y39.0984 Z0.0000
G1 X29.0984 Y39.0984 Z-1.0000 F80.00
G2 X25.5052 Y29.2261 Z-1.0000 I-4.0984 J-4.0984 F200.00
G2 X24.4948 Y40.7739 Z-1.0000 I-0.5052 J5.7739 F200.00
G2 X29.0984 Y39.0984 Z-1.0000 I0.5052 J-5.7739 F200.00
G0 X29.0984 Y39.0984 Z5.0000
G0 X27.1874 Y37.1874 Z5.0000
G0 X27.1874 Y37.1874 Z0.0000
G1 X27.1874 Y37.1874 Z-1.0000 F80.00
G2 X25.2696 Y31.9183 Z-1.0000 I-2.1874 J-2.1874 F200.00
G2 X24.7304 Y38.0817 Z-1.0000 I-0.2696 J3.0817 F200.00
G2 X27.1874 Y37.1874 Z-1.0000 I0.2696 J-3.0817 F200.00
G0 X27.1874 Y37.1874 Z5.0000
G0 X25.2764 Y35.2764 Z5.0000
G0 X25.2764 Y35.2764 Z0.0000
G1 X25.2764 Y35.2764 Z-1.0000 F80.00
G2 X25.0341 Y34.6106 Z-1.0000 I-0.2764 J-0.2764 F200.00
G2 X24.9659 Y35.3894 Z-1.0000 I-0.0341 J0.3894 F200.00
G2 X25.2764 Y35.2764 Z-1.0000 I0.0341 J-0.3894 F200.00
G1 X25.2764 Y35.2764 Z-2.0000 F80.00
G2 X25.0341 Y34.6106 Z-2.0000 I-0.2764 J-0.2764 F200.00
G2 X24.9659 Y35.3894 Z-2.0000 I-0.0341 J0.3894 F200.00
G2 X25.2764 Y35.2764 Z-2.0000 I0.0341 J-0.3894 F200.00
G0 X25.2764 Y35.2764 Z5.0000
G0 X27.1874 Y37.1874 Z5.0000
G0 X27.1874 Y37.1874 Z-1.0000
G1 X27.1874 Y37.1874 Z-2.0000 F80.00
G2 X25.2696 Y31.9183 Z-2.0000 I-2.1874 J-2.1874 F200.00
G2 X24.7304 Y38.0817 Z-2.0000 I-0.2696 J3.0817 F200.00
G2 X27.1874 Y37.1874 Z-2.0000 I0.2696 J-3.0817 F200.00
G0 X27.1874 Y37.1874 Z5.0000
G0 X29.0984 Y39.0984 Z5.0000
G0 X29.0984 Y39.0984 Z-1.0000
G1 X29.0984 Y39.0984 Z-2.0000 F80.00
G2 X25.5052 Y29.2261 Z-2.0000 I-4.0984 J-4.0984 F200.00
G2 X24.4948 Y40.7739 Z-2.0000 I-0.5052 J5.7739 F200.00
G2 X29.0984 Y39.0984 Z-2.0000 I0.5052 J-5.7739 F200.00
G0 X29.0984 Y39.0984 Z5.0000
G0 X31.0094 Y41.0094 Z5.0000
G0 X31.0094 Y41.0094 Z-1.0000
G1 X31.0094 Y41.0094 Z-2.0000 F80.00
G2 X25.7407 Y26.5338 Z-2.0000 I-6.0094 J-6.0094 F200.00
G2 X24.2593 Y43.4662 Z-2.0000 I-0.7407 J8.4662 F200.00
G2 X31.0094 Y41.0094 Z-2.0000 I0.7407 J-8.4662 F200.00
G1 X31.0094 Y41.0094 Z-3.0000 F80.00
G2 X25.7407 Y26.5338 Z-3.0000 I-6.0094 J-6.0094 F200.00
G2 X24.2593 Y43.4662 Z-3.0000 I-0.7407 J8.4662 F200.00
G2 X31.0094 Y41.0094 Z-3.0000 I0.7407 J-8.4662 F200.00
G0 X31.0094 Y41.0094 Z5.0000
G0 X29.0984 Y39.0984 Z5.0000
G0 X29.0984 Y39.0984 Z-2.0000
G1 X29.0984 Y39.0984 Z-3.0000 F80.00
G2 X25.5052 Y29.2261 Z-3.0000 I-4.0984 J-4.0984 F200.00
G2 X24.4948 Y40.7739 Z-3.0000 I-0.5052 J5.7739 F200.00
G2 X29.0984 Y39.0984 Z-3.0000 I0.5052 J-5.7739 F200.00
G0 X29.0984 Y39.0984 Z5.0000
G0 X27.1874 Y37.1874 Z5.0000
G0 X27.1874 Y37.1874 Z-2.0000
G1 X27.1874 Y37.1874 Z-3.0000 F80.00
G2 X25.2696 Y31.9183 Z-3.0000 I-2.1874 J-2.1874 F200.00
G2 X24.7304 Y38.0817 Z-3.0000 I-0.2696 J3.0817 F200.00
G2 X27.1874 Y37.1874 Z-3.0000 I0.2696 J-3.0817 F200.00
G0 X27.1874 Y37.1874 Z5.0000
G0 X25.2764 Y35.2764 Z5.0000
G0 X25.2764 Y35.2764 Z-2.0000
G1 X25.2764 Y35.2764 Z-3.0000 F80.00
G2 X25.0341 Y34.6106 Z-3.0000 I-0.2764 J-0.2764 F200.00
G2 X24.9659 Y35.3894 Z-3.0000 I-0.0341 J0.3894 F200.00
G2 X25.2764 Y35.2764 Z-3.0000 I0.0341 J-0.3894 F200.00
G1 X25.2764 Y35.2764 Z-4.0000 F80.00
G2 X25.0341 Y34.6106 Z-4.0000 I-0.2764 J-0.2764 F200.00
G2 X24.9659 Y35.3894 Z-4.0000 I-0.0341 J0.3894 F200.00
G2 X25.2764 Y35.2764 Z-4.0000 I0.0341 J-0.3894 F200.00
G0 X25.2764 Y35.2764 Z5.0000
G0 X27.1874 Y37.1874 Z5.0000
G0 X27.1874 Y37.1874 Z-3.0000
G1 X27.1874 Y37.1874 Z-4.0000 F80.00
G2 X25.2696 Y31.9183 Z-4.0000 I-2.1874 J-2.1874 F200.00
G2 X24.7304 Y38.0817 Z-4.0000 I-0.2696 J3.0817 F200.00
G2 X27.1874 Y37.1874 Z-4.0000 I0.2696 J-3.0817 F200.00
G0 X27.1874 Y37.1874 Z5.0000
G0 X29.0984 Y39.0984 Z5.0000
G0 X29.0984 Y39.0984 Z-3.0000
G1 X29.0984 Y39.0984 Z-4.0000 F80.00
G2 X25.5052 Y29.2261 Z-4.0000 I-4.0984 J-4.0984 F200.00
G2 X24.4948 Y40.7739 Z-4.0000 I-0.5052 J5.7739 F200.00
G2 X29.0984 Y39.0984 Z-4.0000 I0.5052 J-5.7739 F200.00
G0 X29.0984 Y39.0984 Z5.0000
G0 X31.0094 Y41.0094 Z5.0000
G0 X31.0094 Y41.0094 Z-3.0000
G1 X31.0094 Y41.0094 Z-4.0000 F80.00
G2 X25.7407 Y26.5338 Z-4.0000 I-6.0094 J-6.0094 F200.00
G2 X24.2593 Y43.4662 Z-4.0000 I-0.7407 J8.4662 F200.00
G2 X31.0094 Y41.0094 Z-4.0000 I0.7407 J-8.4662 F200.00
G1 X31.0094 Y41.0094 Z-5.0000 F80.00
G2 X25.7407 Y26.5338 Z-5.0000 I-6.0094 J-6.0094 F200.00
G2 X24.2593 Y43.4662 Z-5.0000 I-0.7407 J8.4662 F200.00
G2 X31.0094 Y41.0094 Z-5.0000 I0.7407 J-8.4662 F200.00
G0 X31.0094 Y41.0094 Z5.0000
G0 X29.0984 Y39.0984 Z5.0000
G0 X29.0984 Y39.0984 Z-4.0000
G1 X29.0984 Y39.0984 Z-5.0000 F80.00
G2 X25.5052 Y29.2261 Z-5.0000 I-4.0984 J-4.0984 F200.00
G2 X24.4948 Y40.7739 Z-5.0000 I-0.5052 J5.7739 F200.00
G2 X29.0984 Y39.0984 Z-5.0000 I0.5052 J-5.7739 F200.00
G0 X29.0984 Y39.0984 Z5.0000
G0 X27.1874 Y37.1874 Z5.0000
G0 X27.1874 Y37.1874 Z-4.0000
G1 X27.1874 Y37.1874 Z-5.0000 F80.00
G2 X25.2696 Y31.9183 Z-5.0000 I-2.1874 J-2.1874 F200.00
G2 X24.7304 Y38.0817 Z-5.0000 I-0.2696 J3.0817 F200.00
G2 X27.1874 Y37.1874 Z-5.0000 I0.2696 J-3.0817 F200.00
G0 X27.1874 Y37.1874 Z5.0000
G0 X25.2764 Y35.2764 Z5.0000
G0 X25.2764 Y35.2764 Z-4.0000
G1 X25.2764 Y35.2764 Z-5.0000 F80.00
G2 X25.0341 Y34.6106 Z-5.0000 I-0.2764 J-0.2764 F200.00
G2 X24.9659 Y35.3894 Z-5.0000 I-0.0341 J0.3894 F200.00
G2 X25.2764 Y35.2764 Z-5.0000 I0.0341 J-0.3894 F200.00
G0 Z5.0000
(finish operation: Pocket002)
(begin operation: Default_Tool)
(Path: Default_Tool)
(Default_Tool)
(begin toolchange)
; M6 T1.0
M3 S1000.0000
(finish operation: Default_Tool)
(begin operation: Profile_Edges001)
(Path: Profile_Edges001)
(Profile_Edges001)
(Compensated Tool Path. Diameter: 3.0)
G0 Z5.0000
G0 X81.0607 Y61.0607
G0 Z0.0000
G1 X81.0607 Y61.0607 Z-1.0000 F80.00
G2 X81.5000 Y60.0000 Z-1.0000 I-1.0607 J-1.0607 F200.00
G1 X81.5000 Y10.0000 Z-1.0000 F200.00
G2 X80.3338 Y8.5376 Z-1.0000 I-1.5000 J0.0000 F200.00
G1 X80.0000 Y8.5000 Z-1.0000 F200.00
G1 X10.0000 Y8.5000 Z-1.0000 F200.00
G2 X8.5000 Y10.0000 Z-1.0000 I0.0000 J1.5000 F200.00
G1 X8.5000 Y60.0000 Z-1.0000 F200.00
G2 X10.0000 Y61.5000 Z-1.0000 I1.5000 J0.0000 F200.00
G1 X80.0000 Y61.5000 Z-1.0000 F200.00
G2 X81.0607 Y61.0607 Z-1.0000 I0.0000 J-1.5000 F200.00
G1 X81.0607 Y61.0607 Z-2.0000 F80.00
G2 X81.5000 Y60.0000 Z-2.0000 I-1.0607 J-1.0607 F200.00
G1 X81.5000 Y10.0000 Z-2.0000 F200.00
G2 X80.3338 Y8.5376 Z-2.0000 I-1.5000 J0.0000 F200.00
G1 X80.0000 Y8.5000 Z-2.0000 F200.00
G1 X10.0000 Y8.5000 Z-2.0000 F200.00
G2 X8.5000 Y10.0000 Z-2.0000 I0.0000 J1.5000 F200.00
G1 X8.5000 Y60.0000 Z-2.0000 F200.00
G2 X10.0000 Y61.5000 Z-2.0000 I1.5000 J0.0000 F200.00
G1 X80.0000 Y61.5000 Z-2.0000 F200.00
G2 X81.0607 Y61.0607 Z-2.0000 I0.0000 J-1.5000 F200.00
G1 X81.0607 Y61.0607 Z-3.0000 F80.00
G2 X81.5000 Y60.0000 Z-3.0000 I-1.0607 J-1.0607 F200.00
G1 X81.5000 Y10.0000 Z-3.0000 F200.00
G2 X80.3338 Y8.5376 Z-3.0000 I-1.5000 J0.0000 F200.00
G1 X80.0000 Y8.5000 Z-3.0000 F200.00
G1 X10.0000 Y8.5000 Z-3.0000 F200.00
G2 X8.5000 Y10.0000 Z-3.0000 I0.0000 J1.5000 F200.00
G1 X8.5000 Y60.0000 Z-3.0000 F200.00
G2 X10.0000 Y61.5000 Z-3.0000 I1.5000 J0.0000 F200.00
G1 X80.0000 Y61.5000 Z-3.0000 F200.00
G2 X81.0607 Y61.0607 Z-3.0000 I0.0000 J-1.5000 F200.00
G1 X81.0607 Y61.0607 Z-4.0000 F80.00
G2 X81.5000 Y60.0000 Z-4.0000 I-1.0607 J-1.0607 F200.00
G1 X81.5000 Y10.0000 Z-4.0000 F200.00
G2 X80.3338 Y8.5376 Z-4.0000 I-1.5000 J0.0000 F200.00
G1 X80.0000 Y8.5000 Z-4.0000 F200.00
G1 X10.0000 Y8.5000 Z-4.0000 F200.00
G2 X8.5000 Y10.0000 Z-4.0000 I0.0000 J1.5000 F200.00
G1 X8.5000 Y60.0000 Z-4.0000 F200.00
G2 X10.0000 Y61.5000 Z-4.0000 I1.5000 J0.0000 F200.00
G1 X80.0000 Y61.5000 Z-4.0000 F200.00
G2 X81.0607 Y61.0607 Z-4.0000 I0.0000 J-1.5000 F200.00
G1 X81.0607 Y61.0607 Z-5.0000 F80.00
G2 X81.5000 Y60.0000 Z-5.0000 I-1.0607 J-1.0607 F200.00
G1 X81.5000 Y10.0000 Z-5.0000 F200.00
G2 X80.3338 Y8.5376 Z-5.0000 I-1.5000 J0.0000 F200.00
G1 X80.0000 Y8.5000 Z-5.0000 F200.00
G1 X10.0000 Y8.5000 Z-5.0000 F200.00
G2 X8.5000 Y10.0000 Z-5.0000 I0.0000 J1.5000 F200.00
G1 X8.5000 Y60.0000 Z-5.0000 F200.00
G2 X10.0000 Y61.5000 Z-5.0000 I1.5000 J0.0000 F200.00
G1 X80.0000 Y61.5000 Z-5.0000 F200.00
G2 X81.0607 Y61.0607 Z-5.0000 I0.0000 J-1.5000 F200.00
G1 X81.0607 Y61.0607 Z-6.0000 F80.00
G2 X81.5000 Y60.0000 Z-6.0000 I-1.0607 J-1.0607 F200.00
G1 X81.5000 Y10.0000 Z-6.0000 F200.00
G2 X80.3338 Y8.5376 Z-6.0000 I-1.5000 J0.0000 F200.00
G1 X80.0000 Y8.5000 Z-6.0000 F200.00
G1 X10.0000 Y8.5000 Z-6.0000 F200.00
G2 X8.5000 Y10.0000 Z-6.0000 I0.0000 J1.5000 F200.00
G1 X8.5000 Y60.0000 Z-6.0000 F200.00
G2 X10.0000 Y61.5000 Z-6.0000 I1.5000 J0.0000 F200.00
G1 X80.0000 Y61.5000 Z-6.0000 F200.00
G2 X81.0607 Y61.0607 Z-6.0000 I0.0000 J-1.5000 F200.00
G1 X81.0607 Y61.0607 Z-7.0000 F80.00
G2 X81.5000 Y60.0000 Z-7.0000 I-1.0607 J-1.0607 F200.00
G1 X81.5000 Y10.0000 Z-7.0000 F200.00
G2 X80.3338 Y8.5376 Z-7.0000 I-1.5000 J0.0000 F200.00
G1 X80.0000 Y8.5000 Z-7.0000 F200.00
G1 X10.0000 Y8.5000 Z-7.0000 F200.00
G2 X8.5000 Y10.0000 Z-7.0000 I0.0000 J1.5000 F200.00
G1 X8.5000 Y60.0000 Z-7.0000 F200.00
G2 X10.0000 Y61.5000 Z-7.0000 I1.5000 J0.0000 F200.00
G1 X80.0000 Y61.5000 Z-7.0000 F200.00
G2 X81.0607 Y61.0607 Z-7.0000 I0.0000 J-1.5000 F200.00
G1 X81.0607 Y61.0607 Z-8.0000 F80.00
G2 X81.5000 Y60.0000 Z-8.0000 I-1.0607 J-1.0607 F200.00
G1 X81.5000 Y10.0000 Z-8.0000 F200.00
G2 X80.3338 Y8.5376 Z-8.0000 I-1.5000 J0.0000 F200.00
G1 X80.0000 Y8.5000 Z-8.0000 F200.00
G1 X10.0000 Y8.5000 Z-8.0000 F200.00
G2 X8.5000 Y10.0000 Z-8.0000 I0.0000 J1.5000 F200.00
G1 X8.5000 Y60.0000 Z-8.0000 F200.00
G2 X10.0000 Y61.5000 Z-8.0000 I1.5000 J0.0000 F200.00
G1 X80.0000 Y61.5000 Z-8.0000 F200.00
G2 X81.0607 Y61.0607 Z-8.0000 I0.0000 J-1.5000 F200.00
G1 X81.0607 Y61.0607 Z-9.0000 F80.00
G2 X81.5000 Y60.0000 Z-9.0000 I-1.0607 J-1.0607 F200.00
G1 X81.5000 Y10.0000 Z-9.0000 F200.00
G2 X80.3338 Y8.5376 Z-9.0000 I-1.5000 J0.0000 F200.00
G1 X80.0000 Y8.5000 Z-9.0000 F200.00
G1 X10.0000 Y8.5000 Z-9.0000 F200.00
G2 X8.5000 Y10.0000 Z-9.0000 I0.0000 J1.5000 F200.00
G1 X8.5000 Y60.0000 Z-9.0000 F200.00
G2 X10.0000 Y61.5000 Z-9.0000 I1.5000 J0.0000 F200.00
G1 X80.0000 Y61.5000 Z-9.0000 F200.00
G2 X81.0607 Y61.0607 Z-9.0000 I0.0000 J-1.5000 F200.00
G1 X81.0607 Y61.0607 Z-10.0000 F80.00
G2 X81.5000 Y60.0000 Z-10.0000 I-1.0607 J-1.0607 F200.00
G1 X81.5000 Y10.0000 Z-10.0000 F200.00
G2 X80.3338 Y8.5376 Z-10.0000 I-1.5000 J0.0000 F200.00
G1 X80.0000 Y8.5000 Z-10.0000 F200.00
G1 X10.0000 Y8.5000 Z-10.0000 F200.00
G2 X8.5000 Y10.0000 Z-10.0000 I0.0000 J1.5000 F200.00
G1 X8.5000 Y60.0000 Z-10.0000 F200.00
G2 X10.0000 Y61.5000 Z-10.0000 I1.5000 J0.0000 F200.00
G1 X80.0000 Y61.5000 Z-10.0000 F200.00
G2 X81.0607 Y61.0607 Z-10.0000 I0.0000 J-1.5000 F200.00
G0 Z5.0000
(finish operation: Profile_Edges001)
(begin postamble)
M5
G17 G90
; M2
